projects/vfh1/img/icons-service/news.svg

<svg width="67" height="63" viewBox="0 0 67 63" fill="none" xmlns="http://www.w3.org/2000/svg">
<path d="M63.1247 36.4375C62.2517 36.4375 61.4144 36.7843 60.7971 37.4016C60.1798 38.0189 59.833 38.8562 59.833 39.7292V52.8958C59.833 53.7688 59.4862 54.6061 58.8689 55.2234C58.2516 55.8407 57.4143 56.1875 56.5413 56.1875H10.458C9.585 56.1875 8.74776 55.8407 8.13045 55.2234C7.51314 54.6061 7.16634 53.7688 7.16634 52.8958V21.3288L26.5213 40.6838C28.3729 42.533 30.8828 43.5717 33.4997 43.5717C36.1166 43.5717 38.6264 42.533 40.478 40.6838L52.2951 28.8996C52.9149 28.2798 53.2631 27.4391 53.2631 26.5625C53.2631 25.6859 52.9149 24.8453 52.2951 24.2254C51.6753 23.6056 50.8346 23.2574 49.958 23.2574C49.0814 23.2574 48.2408 23.6056 47.6209 24.2254L35.8368 36.0425C35.5308 36.351 35.1667 36.5959 34.7656 36.763C34.3645 36.9301 33.9342 37.0162 33.4997 37.0162C33.0651 37.0162 32.6349 36.9301 32.2338 36.763C31.8327 36.5959 31.4686 36.351 31.1626 36.0425L11.8076 16.6875H49.958C50.831 16.6875 51.6683 16.3407 52.2856 15.7234C52.9029 15.1061 53.2497 14.2688 53.2497 13.3958C53.2497 12.5228 52.9029 11.6856 52.2856 11.0683C51.6683 10.451 50.831 10.1042 49.958 10.1042H10.458C7.83899 10.1042 5.32725 11.1446 3.47533 12.9965C1.62341 14.8484 0.583008 17.3602 0.583008 19.9792V52.8958C0.583008 55.5149 1.62341 58.0266 3.47533 59.8785C5.32725 61.7304 7.83899 62.7708 10.458 62.7708H56.5413C59.1604 62.7708 61.6721 61.7304 63.524 59.8785C65.3759 58.0266 66.4163 55.5149 66.4163 52.8958V39.7292C66.4163 38.8562 66.0695 38.0189 65.4522 37.4016C64.8349 36.7843 63.9977 36.4375 63.1247 36.4375ZM63.1247 6.8125C63.9962 6.80038 64.831 6.45942 65.4618 5.85792L65.8568 5.33125C65.987 5.16321 66.0873 4.97389 66.153 4.77167C66.2708 4.58894 66.3597 4.38908 66.4163 4.17917C66.4325 3.96002 66.4325 3.73998 66.4163 3.52084C66.4042 2.64931 66.0633 1.81455 65.4618 1.18375C65.1558 0.87523 64.7917 0.630349 64.3906 0.463235C63.9895 0.296121 63.5592 0.210083 63.1247 0.210083C62.6901 0.210083 62.2599 0.296121 61.8588 0.463235C61.4577 0.630349 61.0936 0.87523 60.7876 1.18375C60.4791 1.48976 60.2342 1.85382 60.0671 2.25494C59.9 2.65606 59.8139 3.0863 59.8139 3.52084C59.8139 3.95537 59.9 4.38561 60.0671 4.78673C60.2342 5.18785 60.4791 5.55192 60.7876 5.85792C61.4184 6.45942 62.2532 6.80038 63.1247 6.8125ZM63.1247 10.1042C62.2517 10.1042 61.4144 10.451 60.7971 11.0683C60.1798 11.6856 59.833 12.5228 59.833 13.3958V26.5625C59.833 27.4355 60.1798 28.2728 60.7971 28.8901C61.4144 29.5074 62.2517 29.8542 63.1247 29.8542C63.9977 29.8542 64.8349 29.5074 65.4522 28.8901C66.0695 28.2728 66.4163 27.4355 66.4163 26.5625V13.3958C66.4163 12.5228 66.0695 11.6856 65.4522 11.0683C64.8349 10.451 63.9977 10.1042 63.1247 10.1042Z" fill="#42474D" fill-opacity="0.5"/>
</svg>

<svg width="67" height="63" fill="none" xmlns="http://www.w3.org/2000/svg"><path d="M63.125 36.438a3.292 3.292 0 00-3.292 3.291v13.167a3.292 3.292 0 01-3.292 3.291H10.458a3.292 3.292 0 01-3.292-3.291V21.329l19.355 19.355a9.875 9.875 0 0013.957 0L52.295 28.9a3.305 3.305 0 00-4.674-4.675L35.837 36.042a3.292 3.292 0 01-4.674 0L11.808 16.687h38.15a3.292 3.292 0 100-6.583h-39.5A9.875 9.875 0 00.583 19.98v32.917a9.875 9.875 0 009.875 9.875h46.083a9.875 9.875 0 009.875-9.875V39.729a3.292 3.292 0 00-3.291-3.291zm0-29.626a3.456 3.456 0 002.337-.954l.395-.527c.13-.168.23-.357.296-.56.118-.182.207-.382.263-.592a4.251 4.251 0 000-.658 3.456 3.456 0 00-.954-2.337 3.292 3.292 0 00-4.674 0 3.292 3.292 0 000 4.674 3.46 3.46 0 002.337.955zm0 3.292a3.292 3.292 0 00-3.292 3.292v13.166a3.292 3.292 0 106.583 0V13.396a3.292 3.292 0 00-3.291-3.292z" fill="#42474D" fill-opacity=".5"/></svg>
